X: 407
%
U:~=!turn!
T: Miss Jessie Dalrymple
C:R. MacIntosh
O:Scotland
B:Keith Norman MacDonald : "The Skye collection of the best reels & strathspeys extant" : 1887
Z:Ralph Palmer
R:Reel
M:C
L:1/8
K:Bb
F | B2 (dB) fBdB | (Gc)(ec) gcec | (A/c/f) a>f bgaf | (=e/f/g) c>e fFF :| E | (D/E/F) (BF) GEeg | FdDF ECce |
(D/E/F) (BF) GEce | (d/c/B) FA BB,B,E | (D/E/F) (BF) GEcg | FdDF ECce | DFBb acdg | fBAe dBB |]


